packages/assets/static/images/icons/eye-slash.svg

<svg width="24" height="24" viewBox="0 0 24 24" xmlns="http://www.w3.org/2000/svg" fill="currentColor" aria-hidden="true"> <g clip-path="url(#clip0_2001_46577)"> <path d="M4.83238 2.99341C4.73358 2.88204 4.61367 2.79139 4.47958 2.72671C4.34549 2.66204 4.1999 2.62461 4.05124 2.61661C3.90259 2.60862 3.75382 2.6302 3.61357 2.68013C3.47331 2.73005 3.34436 2.80731 3.23419 2.90743C3.12402 3.00755 3.03481 3.12855 2.97175 3.2634C2.90868 3.39826 2.873 3.54429 2.86679 3.69303C2.86057 3.84177 2.88394 3.99027 2.93554 4.12991C2.98714 4.26956 3.06594 4.39757 3.16738 4.50653L4.66738 6.16122C1.43769 8.31185 0.0361298 11.3981 -0.0313702 11.5434C-0.0948829 11.6874 -0.127686 11.8431 -0.127686 12.0004C-0.127686 12.1578 -0.0948829 12.3135 -0.0313702 12.4575C0.00331728 12.5343 0.824567 14.3568 2.63957 16.1709C5.06582 18.5943 8.12488 19.875 11.4999 19.875C13.1402 19.8841 14.7657 19.5653 16.2811 18.9375L18.1646 21.0093C18.3663 21.226 18.6453 21.3545 18.941 21.3668C19.2368 21.3792 19.5255 21.2745 19.7446 21.0754C19.9637 20.8763 20.0955 20.5988 20.1114 20.3032C20.1273 20.0076 20.026 19.7177 19.8296 19.4962L4.83238 2.99341ZM11.4999 17.625C8.72582 17.625 6.29957 16.619 4.28957 14.6362C3.49893 13.8534 2.81861 12.9665 2.26738 12C2.76144 11.1272 4.02894 9.19685 6.20488 7.84778L14.6508 17.1393C13.6323 17.4646 12.5691 17.6284 11.4999 17.625ZM23.0311 12.4575C22.9974 12.5334 22.1874 14.3325 20.4061 16.1287C20.3041 16.2419 20.1802 16.3333 20.0418 16.3971C19.9035 16.461 19.7536 16.4961 19.6012 16.5003C19.4489 16.5045 19.2973 16.4777 19.1557 16.4215C19.014 16.3654 18.8852 16.281 18.7771 16.1736C18.6691 16.0661 18.584 15.9379 18.527 15.7965C18.47 15.6552 18.4423 15.5038 18.4456 15.3514C18.4488 15.199 18.4831 15.049 18.5461 14.9102C18.6092 14.7715 18.6998 14.647 18.8124 14.5443C19.5606 13.7836 20.2061 12.9282 20.7324 12C20.1815 11.0333 19.5011 10.1463 18.7102 9.36372C16.6993 7.38091 14.2739 6.37497 11.4999 6.37497C11.1858 6.37497 10.8718 6.3881 10.5624 6.41435C10.4133 6.43032 10.2625 6.41633 10.1189 6.37319C9.97531 6.33006 9.84178 6.25866 9.72617 6.16318C9.61056 6.0677 9.5152 5.95007 9.4457 5.81721C9.3762 5.68435 9.33396 5.53894 9.32146 5.38952C9.30896 5.24011 9.32646 5.0897 9.37292 4.94714C9.41938 4.80458 9.49387 4.67274 9.59202 4.55938C9.69016 4.44603 9.80997 4.35343 9.94441 4.28704C10.0789 4.22065 10.2252 4.1818 10.3749 4.17278C10.7433 4.14091 11.1249 4.12497 11.4999 4.12497C14.8749 4.12497 17.9339 5.40653 20.3583 7.82997C22.1724 9.64403 22.9936 11.4675 23.0283 11.5434C23.0923 11.6872 23.1256 11.8428 23.126 12.0001C23.1265 12.1575 23.0942 12.3133 23.0311 12.4575Z"/> </g> <defs> <clipPath id="clip0_2001_46577"> <rect width="24" height="24"/> </clipPath> </defs> </svg>

<svg viewBox="0 0 24 24" xmlns="http://www.w3.org/2000/svg" aria-hidden="true" fill="currentColor"><g clip-path="url(#a)"><path d="M4.832 2.993a1.125 1.125 0 1 0-1.665 1.514l1.5 1.654c-3.23 2.15-4.63 5.237-4.698 5.382a1.13 1.13 0 0 0 0 .915c.034.076.856 1.899 2.67 3.713 2.427 2.423 5.486 3.704 8.86 3.704 1.641.01 3.267-.31 4.782-.937l1.884 2.071a1.125 1.125 0 0 0 1.665-1.513zM11.5 17.625c-2.774 0-5.2-1.006-7.21-2.989A12.3 12.3 0 0 1 2.267 12c.494-.873 1.762-2.803 3.938-4.152l8.446 9.291a10.3 10.3 0 0 1-3.151.486m11.531-5.167c-.034.075-.844 1.874-2.625 3.67a1.124 1.124 0 1 1-1.594-1.584A12.2 12.2 0 0 0 20.732 12a12.2 12.2 0 0 0-2.022-2.636C16.7 7.38 14.274 6.375 11.5 6.375q-.472 0-.938.04a1.125 1.125 0 1 1-.187-2.242c.368-.032.75-.048 1.125-.048 3.375 0 6.434 1.282 8.858 3.705 1.814 1.814 2.636 3.637 2.67 3.713a1.13 1.13 0 0 1 .003.915"/></g><defs><clipPath id="a"><path d="M0 0h24v24H0z"/></clipPath></defs></svg>
